assets/icons/qvision/how_to_reg.svg

<svg xmlns="http://www.w3.org/2000/svg" height="24" viewBox="0 0 24 24" width="24"><path d="M0 0h24v24H0z" fill="none" fill-rule="evenodd"/><g fill-rule="evenodd"><path d="M9 17l3-2.94c-.39-.04-.68-.06-1-.06-2.67 0-8 1.34-8 4v2h9l-3-3zm2-5c2.21 0 4-1.79 4-4s-1.79-4-4-4-4 1.79-4 4 1.79 4 4 4"/><path d="M15.47 20.5L12 17l1.4-1.41 2.07 2.08 5.13-5.17 1.4 1.41z"/></g></svg>

<svg width="24" height="24" viewBox="0 0 24 24" fill="none" xmlns="http://www.w3.org/2000/svg">
<g clip-path="url(#clip0_147_2162)">
<path fill-rule="evenodd" clip-rule="evenodd" d="M9 17L12 14.06C11.61 14.02 11.32 14 11 14C8.33 14 3 15.34 3 18V20H12L9 17ZM11 12C13.21 12 15 10.21 15 8C15 5.79 13.21 4 11 4C8.79 4 7 5.79 7 8C7 10.21 8.79 12 11 12Z" fill="#323232"/>
<path fill-rule="evenodd" clip-rule="evenodd" d="M15.47 20.5L12 17L13.4 15.59L15.47 17.67L20.6 12.5L22 13.91L15.47 20.5Z" fill="#323232"/>
</g>
<defs>
<clipPath id="clip0_147_2162">
<rect width="24" height="24" fill="white"/>
</clipPath>
</defs>
</svg>
